/* SPDX-License-Identifier: GPL-3.0-or-later */
/* XPM */
static const char *digs_miner_xpm[] = {
"256 256 18 2",
".. c None",
"00 c #FF620F",
"01 c #FF9874",
"02 c #EF7B74",
"03 c #D36374",
"04 c #5A6374",
"05 c #FF985D",
"06 c #EF7B5D",
"07 c #D35E5D",
"08 c #454D5D",
"09 c #596273",
"0A c #FF4B2F",
"0B c #FA3B26",
"0C c #4D2B26",
"0D c #63362F",
"0E c #FF432F",
"0F c #576072",
"0G c #1B1B21",
"................................................................................................................................................................................................................................................................................................................................................................................................................................................................................................................................",
"................................................................................................................................................................................................................................................................................................................................................................................................................................................................................................................................",
"................................................................................................................................................................................................................................................................................................................................................................................................................................................................................................................................",
"................................................................................................................................................................................................................................................................................................................................................................................................................................................................................................................................",
"................................................................................................................................................................................................................................................................................................................................................................................................................................................................................................................................",
"................................................................................................................................................................................................................................................................................................................................................................................................................................................................................................................................",
"................................................................................................................................................................................................................................................................................................................................................................................................................................................................................................................................",
"................................................................................................................................................................................................................................................................................................................................................................................................................................................................................................................................",
"................................................................................................................................................................................................................................................................................................................................................................................................................................................................................................................................",
"................................................................................................................................................................................................................................................................................................................................................................................................................................................................................................................................",
"................................................................................................................................................................................................................................................................................................................................................................................................................................................................................................................................",
"................................................................................................................................................................................................................................................................................................................................................................................................................................................................................................................................",
"................................................................................................................................................................................................................................................................................................................................................................................................................................................................................................................................",
"................................................................................................................................................................................................................................................................................................................................................................................................................................................................................................................................",
"................................................................................................................................................................................................................................................................................................................................................................................................................................................................................................................................",
"................................................................................................................................................................................................................................................................................................................................................................................................................................................................................................................................",
"................................................................................................................................0000000000000000000000000000000000000000000000000000000000000000010101010101010101010101010101010202020202020202020202020202020203030303030303030303030303030303040404040404040404040404040404040404040404040404040404040404040404040404040404040404040404040404................................................................................................................................",
"................................................................................................................................0000000000000000000000000000000000000000000000000000000000000000010101010101010101010101010101010202020202020202020202020202020203030303030303030303030303030303040404040404040404040404040404040404040404040404040404040404040404040404040404040404040404040404................................................................................................................................",
"................................................................................................................................0000000000000000000000000000000000000000000000000000000000000000010101010101010101010101010101010202020202020202020202020202020203030303030303030303030303030303040404040404040404040404040404040404040404040404040404040404040404040404040404040404040404040404................................................................................................................................",
"................................................................................................................................0000000000000000000000000000000000000000000000000000000000000000010101010101010101010101010101010202020202020202020202020202020203030303030303030303030303030303040404040404040404040404040404040404040404040404040404040404040404040404040404040404040404040404................................................................................................................................",
"................................................................................................................................0000000000000000000000000000000000000000000000000000000000000000010101010101010101010101010101010202020202020202020202020202020203030303030303030303030303030303040404040404040404040404040404040404040404040404040404040404040404040404040404040404040404040404................................................................................................................................",
"................................................................................................................................0000000000000000000000000000000000000000000000000000000000000000010101010101010101010101010101010202020202020202020202020202020203030303030303030303030303030303040404040404040404040404040404040404040404040404040404040404040404040404040404040404040404040404................................................................................................................................",
"................................................................................................................................0000000000000000000000000000000000000000000000000000000000000000010101010101010101010101010101010202020202020202020202020202020203030303030303030303030303030303040404040404040404040404040404040404040404040404040404040404040404040404040404040404040404040404................................................................................................................................",
"................................................................................................................................0000000000000000000000000000000000000000000000000000000000000000010101010101010101010101010101010202020202020202020202020202020203030303030303030303030303030303040404040404040404040404040404040404040404040404040404040404040404040404040404040404040404040404................................................................................................................................",
"................................................................................................................................0000000000000000000000000000000000000000000000000000000000000000010101010101010101010101010101010202020202020202020202020202020203030303030303030303030303030303040404040404040404040404040404040404040404040404040404040404040404040404040404040404040404040404................................................................................................................................",
"................................................................................................................................0000000000000000000000000000000000000000000000000000000000000000010101010101010101010101010101010202020202020202020202020202020203030303030303030303030303030303040404040404040404040404040404040404040404040404040404040404040404040404040404040404040404040404................................................................................................................................",
"................................................................................................................................0000000000000000000000000000000000000000000000000000000000000000010101010101010101010101010101010202020202020202020202020202020203030303030303030303030303030303040404040404040404040404040404040404040404040404040404040404040404040404040404040404040404040404................................................................................................................................",
"................................................................................................................................0000000000000000000000000000000000000000000000000000000000000000010101010101010101010101010101010202020202020202020202020202020203030303030303030303030303030303040404040404040404040404040404040404040404040404040404040404040404040404040404040404040404040404................................................................................................................................",
"................................................................................................................................0000000000000000000000000000000000000000000000000000000000000000010101010101010101010101010101010202020202020202020202020202020203030303030303030303030303030303040404040404040404040404040404040404040404040404040404040404040404040404040404040404040404040404................................................................................................................................",
"................................................................................................................................0000000000000000000000000000000000000000000000000000000000000000010101010101010101010101010101010202020202020202020202020202020203030303030303030303030303030303040404040404040404040404040404040404040404040404040404040404040404040404040404040404040404040404................................................................................................................................",
"................................................................................................................................0000000000000000000000000000000000000000000000000000000000000000010101010101010101010101010101010202020202020202020202020202020203030303030303030303030303030303040404040404040404040404040404040404040404040404040404040404040404040404040404040404040404040404................................................................................................................................",
"................................................................................................................................0000000000000000000000000000000000000000000000000000000000000000010101010101010101010101010101010202020202020202020202020202020203030303030303030303030303030303040404040404040404040404040404040404040404040404040404040404040404040404040404040404040404040404................................................................................................................................",
"................................................................................................................................0000000000000000000000000000000000000000000000000000000000000000050505050505050505050505050505050606060606060606060606060606060607070707070707070707070707070707080808080808080808080808080808080808080808080808080808080808080809090909090909090909090909090909................................................................................................................................",
"................................................................................................................................0000000000000000000000000000000000000000000000000000000000000000050505050505050505050505050505050606060606060606060606060606060607070707070707070707070707070707080808080808080808080808080808080808080808080808080808080808080809090909090909090909090909090909................................................................................................................................",
"................................................................................................................................0000000000000000000000000000000000000000000000000000000000000000050505050505050505050505050505050606060606060606060606060606060607070707070707070707070707070707080808080808080808080808080808080808080808080808080808080808080809090909090909090909090909090909................................................................................................................................",
"................................................................................................................................0000000000000000000000000000000000000000000000000000000000000000050505050505050505050505050505050606060606060606060606060606060607070707070707070707070707070707080808080808080808080808080808080808080808080808080808080808080809090909090909090909090909090909................................................................................................................................",
"................................................................................................................................0000000000000000000000000000000000000000000000000000000000000000050505050505050505050505050505050606060606060606060606060606060607070707070707070707070707070707080808080808080808080808080808080808080808080808080808080808080809090909090909090909090909090909................................................................................................................................",
"................................................................................................................................0000000000000000000000000000000000000000000000000000000000000000050505050505050505050505050505050606060606060606060606060606060607070707070707070707070707070707080808080808080808080808080808080808080808080808080808080808080809090909090909090909090909090909................................................................................................................................",
"................................................................................................................................0000000000000000000000000000000000000000000000000000000000000000050505050505050505050505050505050606060606060606060606060606060607070707070707070707070707070707080808080808080808080808080808080808080808080808080808080808080809090909090909090909090909090909................................................................................................................................",
"................................................................................................................................0000000000000000000000000000000000000000000000000000000000000000050505050505050505050505050505050606060606060606060606060606060607070707070707070707070707070707080808080808080808080808080808080808080808080808080808080808080809090909090909090909090909090909................................................................................................................................",
"................................................................................................................................0000000000000000000000000000000000000000000000000000000000000000050505050505050505050505050505050606060606060606060606060606060607070707070707070707070707070707080808080808080808080808080808080808080808080808080808080808080809090909090909090909090909090909................................................................................................................................",
"................................................................................................................................0000000000000000000000000000000000000000000000000000000000000000050505050505050505050505050505050606060606060606060606060606060607070707070707070707070707070707080808080808080808080808080808080808080808080808080808080808080809090909090909090909090909090909................................................................................................................................",
"................................................................................................................................0000000000000000000000000000000000000000000000000000000000000000050505050505050505050505050505050606060606060606060606060606060607070707070707070707070707070707080808080808080808080808080808080808080808080808080808080808080809090909090909090909090909090909................................................................................................................................",
"................................................................................................................................0000000000000000000000000000000000000000000000000000000000000000050505050505050505050505050505050606060606060606060606060606060607070707070707070707070707070707080808080808080808080808080808080808080808080808080808080808080809090909090909090909090909090909................................................................................................................................",
"................................................................................................................................0000000000000000000000000000000000000000000000000000000000000000050505050505050505050505050505050606060606060606060606060606060607070707070707070707070707070707080808080808080808080808080808080808080808080808080808080808080809090909090909090909090909090909................................................................................................................................",
"................................................................................................................................0000000000000000000000000000000000000000000000000000000000000000050505050505050505050505050505050606060606060606060606060606060607070707070707070707070707070707080808080808080808080808080808080808080808080808080808080808080809090909090909090909090909090909................................................................................................................................",
"................................................................................................................................0000000000000000000000000000000000000000000000000000000000000000050505050505050505050505050505050606060606060606060606060606060607070707070707070707070707070707080808080808080808080808080808080808080808080808080808080808080809090909090909090909090909090909................................................................................................................................",
"................................................................................................................................0000000000000000000000000000000000000000000000000000000000000000050505050505050505050505050505050606060606060606060606060606060607070707070707070707070707070707080808080808080808080808080808080808080808080808080808080808080809090909090909090909090909090909................................................................................................................................",
"................................................................................................................................................................................................0A0A0A0A0A0A0A0A0A0A0A0A0A0A0A0A0B0B0B0B0B0B0B0B0B0B0B0B0B0B0B0B0C0C0C0C0C0C0C0C0C0C0C0C0C0C0C0C0C0C0C0C0C0C0C0C0C0C0C0C0C0C0C0C0C0C0C0C0C0C0C0C0C0C0C0C0C0C0C0C0D0D0D0D0D0D0D0D0D0D0D0D0D0D0D0D................................................................................................................................",
"................................................................................................................................................................................................0A0A0A0A0A0A0A0A0A0A0A0A0A0A0A0A0B0B0B0B0B0B0B0B0B0B0B0B0B0B0B0B0C0C0C0C0C0C0C0C0C0C0C0C0C0C0C0C0C0C0C0C0C0C0C0C0C0C0C0C0C0C0C0C0C0C0C0C0C0C0C0C0C0C0C0C0C0C0C0C0D0D0D0D0D0D0D0D0D0D0D0D0D0D0D0D................................................................................................................................",
"................................................................................................................................................................................................0A0A0A0A0A0A0A0A0A0A0A0A0A0A0A0A0B0B0B0B0B0B0B0B0B0B0B0B0B0B0B0B0C0C0C0C0C0C0C0C0C0C0C0C0C0C0C0C0C0C0C0C0C0C0C0C0C0C0C0C0C0C0C0C0C0C0C0C0C0C0C0C0C0C0C0C0C0C0C0C0D0D0D0D0D0D0D0D0D0D0D0D0D0D0D0D................................................................................................................................",
"................................................................................................................................................................................................0A0A0A0A0A0A0A0A0A0A0A0A0A0A0A0A0B0B0B0B0B0B0B0B0B0B0B0B0B0B0B0B0C0C0C0C0C0C0C0C0C0C0C0C0C0C0C0C0C0C0C0C0C0C0C0C0C0C0C0C0C0C0C0C0C0C0C0C0C0C0C0C0C0C0C0C0C0C0C0C0D0D0D0D0D0D0D0D0D0D0D0D0D0D0D0D................................................................................................................................",
"................................................................................................................................................................................................0A0A0A0A0A0A0A0A0A0A0A0A0A0A0A0A0B0B0B0B0B0B0B0B0B0B0B0B0B0B0B0B0C0C0C0C0C0C0C0C0C0C0C0C0C0C0C0C0C0C0C0C0C0C0C0C0C0C0C0C0C0C0C0C0C0C0C0C0C0C0C0C0C0C0C0C0C0C0C0C0D0D0D0D0D0D0D0D0D0D0D0D0D0D0D0D................................................................................................................................",
"................................................................................................................................................................................................0A0A0A0A0A0A0A0A0A0A0A0A0A0A0A0A0B0B0B0B0B0B0B0B0B0B0B0B0B0B0B0B0C0C0C0C0C0C0C0C0C0C0C0C0C0C0C0C0C0C0C0C0C0C0C0C0C0C0C0C0C0C0C0C0C0C0C0C0C0C0C0C0C0C0C0C0C0C0C0C0D0D0D0D0D0D0D0D0D0D0D0D0D0D0D0D................................................................................................................................",
"................................................................................................................................................................................................0A0A0A0A0A0A0A0A0A0A0A0A0A0A0A0A0B0B0B0B0B0B0B0B0B0B0B0B0B0B0B0B0C0C0C0C0C0C0C0C0C0C0C0C0C0C0C0C0C0C0C0C0C0C0C0C0C0C0C0C0C0C0C0C0C0C0C0C0C0C0C0C0C0C0C0C0C0C0C0C0D0D0D0D0D0D0D0D0D0D0D0D0D0D0D0D................................................................................................................................",
"................................................................................................................................................................................................0A0A0A0A0A0A0A0A0A0A0A0A0A0A0A0A0B0B0B0B0B0B0B0B0B0B0B0B0B0B0B0B0C0C0C0C0C0C0C0C0C0C0C0C0C0C0C0C0C0C0C0C0C0C0C0C0C0C0C0C0C0C0C0C0C0C0C0C0C0C0C0C0C0C0C0C0C0C0C0C0D0D0D0D0D0D0D0D0D0D0D0D0D0D0D0D................................................................................................................................",
"................................................................................................................................................................................................0A0A0A0A0A0A0A0A0A0A0A0A0A0A0A0A0B0B0B0B0B0B0B0B0B0B0B0B0B0B0B0B0C0C0C0C0C0C0C0C0C0C0C0C0C0C0C0C0C0C0C0C0C0C0C0C0C0C0C0C0C0C0C0C0C0C0C0C0C0C0C0C0C0C0C0C0C0C0C0C0D0D0D0D0D0D0D0D0D0D0D0D0D0D0D0D................................................................................................................................",
"................................................................................................................................................................................................0A0A0A0A0A0A0A0A0A0A0A0A0A0A0A0A0B0B0B0B0B0B0B0B0B0B0B0B0B0B0B0B0C0C0C0C0C0C0C0C0C0C0C0C0C0C0C0C0C0C0C0C0C0C0C0C0C0C0C0C0C0C0C0C0C0C0C0C0C0C0C0C0C0C0C0C0C0C0C0C0D0D0D0D0D0D0D0D0D0D0D0D0D0D0D0D................................................................................................................................",
"................................................................................................................................................................................................0A0A0A0A0A0A0A0A0A0A0A0A0A0A0A0A0B0B0B0B0B0B0B0B0B0B0B0B0B0B0B0B0C0C0C0C0C0C0C0C0C0C0C0C0C0C0C0C0C0C0C0C0C0C0C0C0C0C0C0C0C0C0C0C0C0C0C0C0C0C0C0C0C0C0C0C0C0C0C0C0D0D0D0D0D0D0D0D0D0D0D0D0D0D0D0D................................................................................................................................",
"................................................................................................................................................................................................0A0A0A0A0A0A0A0A0A0A0A0A0A0A0A0A0B0B0B0B0B0B0B0B0B0B0B0B0B0B0B0B0C0C0C0C0C0C0C0C0C0C0C0C0C0C0C0C0C0C0C0C0C0C0C0C0C0C0C0C0C0C0C0C0C0C0C0C0C0C0C0C0C0C0C0C0C0C0C0C0D0D0D0D0D0D0D0D0D0D0D0D0D0D0D0D................................................................................................................................",
"................................................................................................................................................................................................0A0A0A0A0A0A0A0A0A0A0A0A0A0A0A0A0B0B0B0B0B0B0B0B0B0B0B0B0B0B0B0B0C0C0C0C0C0C0C0C0C0C0C0C0C0C0C0C0C0C0C0C0C0C0C0C0C0C0C0C0C0C0C0C0C0C0C0C0C0C0C0C0C0C0C0C0C0C0C0C0D0D0D0D0D0D0D0D0D0D0D0D0D0D0D0D................................................................................................................................",
"................................................................................................................................................................................................0A0A0A0A0A0A0A0A0A0A0A0A0A0A0A0A0B0B0B0B0B0B0B0B0B0B0B0B0B0B0B0B0C0C0C0C0C0C0C0C0C0C0C0C0C0C0C0C0C0C0C0C0C0C0C0C0C0C0C0C0C0C0C0C0C0C0C0C0C0C0C0C0C0C0C0C0C0C0C0C0D0D0D0D0D0D0D0D0D0D0D0D0D0D0D0D................................................................................................................................",
"................................................................................................................................................................................................0A0A0A0A0A0A0A0A0A0A0A0A0A0A0A0A0B0B0B0B0B0B0B0B0B0B0B0B0B0B0B0B0C0C0C0C0C0C0C0C0C0C0C0C0C0C0C0C0C0C0C0C0C0C0C0C0C0C0C0C0C0C0C0C0C0C0C0C0C0C0C0C0C0C0C0C0C0C0C0C0D0D0D0D0D0D0D0D0D0D0D0D0D0D0D0D................................................................................................................................",
"................................................................................................................................................................................................0A0A0A0A0A0A0A0A0A0A0A0A0A0A0A0A0B0B0B0B0B0B0B0B0B0B0B0B0B0B0B0B0C0C0C0C0C0C0C0C0C0C0C0C0C0C0C0C0C0C0C0C0C0C0C0C0C0C0C0C0C0C0C0C0C0C0C0C0C0C0C0C0C0C0C0C0C0C0C0C0D0D0D0D0D0D0D0D0D0D0D0D0D0D0D0D................................................................................................................................",
"................................................................................................................................................................................................0E0E0E0E0E0E0E0E0E0E0E0E0E0E0E0E0C0C0C0C0C0C0C0C0C0C0C0C0C0C0C0C0C0C0C0C0C0C0C0C0C0C0C0C0C0C0C0C0C0C0C0C0C0C0C0C0C0C0C0C0C0C0C0C0C0C0C0C0C0C0C0C0C0C0C0C0C0C0C0C0D0D0D0D0D0D0D0D0D0D0D0D0D0D0D0D................................................................................................................................",
"................................................................................................................................................................................................0E0E0E0E0E0E0E0E0E0E0E0E0E0E0E0E0C0C0C0C0C0C0C0C0C0C0C0C0C0C0C0C0C0C0C0C0C0C0C0C0C0C0C0C0C0C0C0C0C0C0C0C0C0C0C0C0C0C0C0C0C0C0C0C0C0C0C0C0C0C0C0C0C0C0C0C0C0C0C0C0D0D0D0D0D0D0D0D0D0D0D0D0D0D0D0D................................................................................................................................",
"................................................................................................................................................................................................0E0E0E0E0E0E0E0E0E0E0E0E0E0E0E0E0C0C0C0C0C0C0C0C0C0C0C0C0C0C0C0C0C0C0C0C0C0C0C0C0C0C0C0C0C0C0C0C0C0C0C0C0C0C0C0C0C0C0C0C0C0C0C0C0C0C0C0C0C0C0C0C0C0C0C0C0C0C0C0C0D0D0D0D0D0D0D0D0D0D0D0D0D0D0D0D................................................................................................................................",
"................................................................................................................................................................................................0E0E0E0E0E0E0E0E0E0E0E0E0E0E0E0E0C0C0C0C0C0C0C0C0C0C0C0C0C0C0C0C0C0C0C0C0C0C0C0C0C0C0C0C0C0C0C0C0C0C0C0C0C0C0C0C0C0C0C0C0C0C0C0C0C0C0C0C0C0C0C0C0C0C0C0C0C0C0C0C0D0D0D0D0D0D0D0D0D0D0D0D0D0D0D0D................................................................................................................................",
"................................................................................................................................................................................................0E0E0E0E0E0E0E0E0E0E0E0E0E0E0E0E0C0C0C0C0C0C0C0C0C0C0C0C0C0C0C0C0C0C0C0C0C0C0C0C0C0C0C0C0C0C0C0C0C0C0C0C0C0C0C0C0C0C0C0C0C0C0C0C0C0C0C0C0C0C0C0C0C0C0C0C0C0C0C0C0D0D0D0D0D0D0D0D0D0D0D0D0D0D0D0D................................................................................................................................",
"................................................................................................................................................................................................0E0E0E0E0E0E0E0E0E0E0E0E0E0E0E0E0C0C0C0C0C0C0C0C0C0C0C0C0C0C0C0C0C0C0C0C0C0C0C0C0C0C0C0C0C0C0C0C0C0C0C0C0C0C0C0C0C0C0C0C0C0C0C0C0C0C0C0C0C0C0C0C0C0C0C0C0C0C0C0C0D0D0D0D0D0D0D0D0D0D0D0D0D0D0D0D................................................................................................................................",
"................................................................................................................................................................................................0E0E0E0E0E0E0E0E0E0E0E0E0E0E0E0E0C0C0C0C0C0C0C0C0C0C0C0C0C0C0C0C0C0C0C0C0C0C0C0C0C0C0C0C0C0C0C0C0C0C0C0C0C0C0C0C0C0C0C0C0C0C0C0C0C0C0C0C0C0C0C0C0C0C0C0C0C0C0C0C0D0D0D0D0D0D0D0D0D0D0D0D0D0D0D0D................................................................................................................................",
"................................................................................................................................................................................................0E0E0E0E0E0E0E0E0E0E0E0E0E0E0E0E0C0C0C0C0C0C0C0C0C0C0C0C0C0C0C0C0C0C0C0C0C0C0C0C0C0C0C0C0C0C0C0C0C0C0C0C0C0C0C0C0C0C0C0C0C0C0C0C0C0C0C0C0C0C0C0C0C0C0C0C0C0C0C0C0D0D0D0D0D0D0D0D0D0D0D0D0D0D0D0D................................................................................................................................",
"................................................................................................................................................................................................0E0E0E0E0E0E0E0E0E0E0E0E0E0E0E0E0C0C0C0C0C0C0C0C0C0C0C0C0C0C0C0C0C0C0C0C0C0C0C0C0C0C0C0C0C0C0C0C0C0C0C0C0C0C0C0C0C0C0C0C0C0C0C0C0C0C0C0C0C0C0C0C0C0C0C0C0C0C0C0C0D0D0D0D0D0D0D0D0D0D0D0D0D0D0D0D................................................................................................................................",
"................................................................................................................................................................................................0E0E0E0E0E0E0E0E0E0E0E0E0E0E0E0E0C0C0C0C0C0C0C0C0C0C0C0C0C0C0C0C0C0C0C0C0C0C0C0C0C0C0C0C0C0C0C0C0C0C0C0C0C0C0C0C0C0C0C0C0C0C0C0C0C0C0C0C0C0C0C0C0C0C0C0C0C0C0C0C0D0D0D0D0D0D0D0D0D0D0D0D0D0D0D0D................................................................................................................................",
"................................................................................................................................................................................................0E0E0E0E0E0E0E0E0E0E0E0E0E0E0E0E0C0C0C0C0C0C0C0C0C0C0C0C0C0C0C0C0C0C0C0C0C0C0C0C0C0C0C0C0C0C0C0C0C0C0C0C0C0C0C0C0C0C0C0C0C0C0C0C0C0C0C0C0C0C0C0C0C0C0C0C0C0C0C0C0D0D0D0D0D0D0D0D0D0D0D0D0D0D0D0D................................................................................................................................",
"................................................................................................................................................................................................0E0E0E0E0E0E0E0E0E0E0E0E0E0E0E0E0C0C0C0C0C0C0C0C0C0C0C0C0C0C0C0C0C0C0C0C0C0C0C0C0C0C0C0C0C0C0C0C0C0C0C0C0C0C0C0C0C0C0C0C0C0C0C0C0C0C0C0C0C0C0C0C0C0C0C0C0C0C0C0C0D0D0D0D0D0D0D0D0D0D0D0D0D0D0D0D................................................................................................................................",
"................................................................................................................................................................................................0E0E0E0E0E0E0E0E0E0E0E0E0E0E0E0E0C0C0C0C0C0C0C0C0C0C0C0C0C0C0C0C0C0C0C0C0C0C0C0C0C0C0C0C0C0C0C0C0C0C0C0C0C0C0C0C0C0C0C0C0C0C0C0C0C0C0C0C0C0C0C0C0C0C0C0C0C0C0C0C0D0D0D0D0D0D0D0D0D0D0D0D0D0D0D0D................................................................................................................................",
"................................................................................................................................................................................................0E0E0E0E0E0E0E0E0E0E0E0E0E0E0E0E0C0C0C0C0C0C0C0C0C0C0C0C0C0C0C0C0C0C0C0C0C0C0C0C0C0C0C0C0C0C0C0C0C0C0C0C0C0C0C0C0C0C0C0C0C0C0C0C0C0C0C0C0C0C0C0C0C0C0C0C0C0C0C0C0D0D0D0D0D0D0D0D0D0D0D0D0D0D0D0D................................................................................................................................",
"................................................................................................................................................................................................0E0E0E0E0E0E0E0E0E0E0E0E0E0E0E0E0C0C0C0C0C0C0C0C0C0C0C0C0C0C0C0C0C0C0C0C0C0C0C0C0C0C0C0C0C0C0C0C0C0C0C0C0C0C0C0C0C0C0C0C0C0C0C0C0C0C0C0C0C0C0C0C0C0C0C0C0C0C0C0C0D0D0D0D0D0D0D0D0D0D0D0D0D0D0D0D................................................................................................................................",
"................................................................................................................................................................................................0E0E0E0E0E0E0E0E0E0E0E0E0E0E0E0E0C0C0C0C0C0C0C0C0C0C0C0C0C0C0C0C0C0C0C0C0C0C0C0C0C0C0C0C0C0C0C0C0C0C0C0C0C0C0C0C0C0C0C0C0C0C0C0C0C0C0C0C0C0C0C0C0C0C0C0C0C0C0C0C0D0D0D0D0D0D0D0D0D0D0D0D0D0D0D0D................................................................................................................................",
"................................................................................................................................................................................................090909090909090909090909090909090808080808080808080808080808080808080808080808080808080808080808080808080808080808080808080808080808080808080808080808080808080809090909090909090909090909090909................................................................................................................................",
"................................................................................................................................................................................................090909090909090909090909090909090808080808080808080808080808080808080808080808080808080808080808080808080808080808080808080808080808080808080808080808080808080809090909090909090909090909090909................................................................................................................................",
"................................................................................................................................................................................................090909090909090909090909090909090808080808080808080808080808080808080808080808080808080808080808080808080808080808080808080808080808080808080808080808080808080809090909090909090909090909090909................................................................................................................................",
"................................................................................................................................................................................................090909090909090909090909090909090808080808080808080808080808080808080808080808080808080808080808080808080808080808080808080808080808080808080808080808080808080809090909090909090909090909090909................................................................................................................................",
"................................................................................................................................................................................................090909090909090909090909090909090808080808080808080808080808080808080808080808080808080808080808080808080808080808080808080808080808080808080808080808080808080809090909090909090909090909090909................................................................................................................................",
"................................................................................................................................................................................................090909090909090909090909090909090808080808080808080808080808080808080808080808080808080808080808080808080808080808080808080808080808080808080808080808080808080809090909090909090909090909090909................................................................................................................................",
"................................................................................................................................................................................................090909090909090909090909090909090808080808080808080808080808080808080808080808080808080808080808080808080808080808080808080808080808080808080808080808080808080809090909090909090909090909090909................................................................................................................................",
"................................................................................................................................................................................................090909090909090909090909090909090808080808080808080808080808080808080808080808080808080808080808080808080808080808080808080808080808080808080808080808080808080809090909090909090909090909090909................................................................................................................................",
"................................................................................................................................................................................................090909090909090909090909090909090808080808080808080808080808080808080808080808080808080808080808080808080808080808080808080808080808080808080808080808080808080809090909090909090909090909090909................................................................................................................................",
"................................................................................................................................................................................................090909090909090909090909090909090808080808080808080808080808080808080808080808080808080808080808080808080808080808080808080808080808080808080808080808080808080809090909090909090909090909090909................................................................................................................................",
"................................................................................................................................................................................................090909090909090909090909090909090808080808080808080808080808080808080808080808080808080808080808080808080808080808080808080808080808080808080808080808080808080809090909090909090909090909090909................................................................................................................................",
"................................................................................................................................................................................................090909090909090909090909090909090808080808080808080808080808080808080808080808080808080808080808080808080808080808080808080808080808080808080808080808080808080809090909090909090909090909090909................................................................................................................................",
"................................................................................................................................................................................................090909090909090909090909090909090808080808080808080808080808080808080808080808080808080808080808080808080808080808080808080808080808080808080808080808080808080809090909090909090909090909090909................................................................................................................................",
"................................................................................................................................................................................................090909090909090909090909090909090808080808080808080808080808080808080808080808080808080808080808080808080808080808080808080808080808080808080808080808080808080809090909090909090909090909090909................................................................................................................................",
"................................................................................................................................................................................................090909090909090909090909090909090808080808080808080808080808080808080808080808080808080808080808080808080808080808080808080808080808080808080808080808080808080809090909090909090909090909090909................................................................................................................................",
"................................................................................................................................................................................................090909090909090909090909090909090808080808080808080808080808080808080808080808080808080808080808080808080808080808080808080808080808080808080808080808080808080809090909090909090909090909090909................................................................................................................................",
"................................................................................................................................................................................................090909090909090909090909090909090808080808080808080808080808080808080808080808080808080808080808080808080808080808080808080808080808080808080808080808080808080809090909090909090909090909090909................................................................................................................................",
"................................................................................................................................................................................................090909090909090909090909090909090808080808080808080808080808080808080808080808080808080808080808080808080808080808080808080808080808080808080808080808080808080809090909090909090909090909090909................................................................................................................................",
"................................................................................................................................................................................................090909090909090909090909090909090808080808080808080808080808080808080808080808080808080808080808080808080808080808080808080808080808080808080808080808080808080809090909090909090909090909090909................................................................................................................................",
"................................................................................................................................................................................................090909090909090909090909090909090808080808080808080808080808080808080808080808080808080808080808080808080808080808080808080808080808080808080808080808080808080809090909090909090909090909090909................................................................................................................................",
"................................................................................................................................................................................................090909090909090909090909090909090808080808080808080808080808080808080808080808080808080808080808080808080808080808080808080808080808080808080808080808080808080809090909090909090909090909090909................................................................................................................................",
"................................................................................................................................................................................................090909090909090909090909090909090808080808080808080808080808080808080808080808080808080808080808080808080808080808080808080808080808080808080808080808080808080809090909090909090909090909090909................................................................................................................................",
"................................................................................................................................................................................................090909090909090909090909090909090808080808080808080808080808080808080808080808080808080808080808080808080808080808080808080808080808080808080808080808080808080809090909090909090909090909090909................................................................................................................................",
"................................................................................................................................................................................................090909090909090909090909090909090808080808080808080808080808080808080808080808080808080808080808080808080808080808080808080808080808080808080808080808080808080809090909090909090909090909090909................................................................................................................................",
"................................................................................................................................................................................................090909090909090909090909090909090808080808080808080808080808080808080808080808080808080808080808080808080808080808080808080808080808080808080808080808080808080809090909090909090909090909090909................................................................................................................................",
"................................................................................................................................................................................................090909090909090909090909090909090808080808080808080808080808080808080808080808080808080808080808080808080808080808080808080808080808080808080808080808080808080809090909090909090909090909090909................................................................................................................................",
"................................................................................................................................................................................................090909090909090909090909090909090808080808080808080808080808080808080808080808080808080808080808080808080808080808080808080808080808080808080808080808080808080809090909090909090909090909090909................................................................................................................................",
"................................................................................................................................................................................................090909090909090909090909090909090808080808080808080808080808080808080808080808080808080808080808080808080808080808080808080808080808080808080808080808080808080809090909090909090909090909090909................................................................................................................................",
"................................................................................................................................................................................................090909090909090909090909090909090808080808080808080808080808080808080808080808080808080808080808080808080808080808080808080808080808080808080808080808080808080809090909090909090909090909090909................................................................................................................................",
"................................................................................................................................................................................................090909090909090909090909090909090808080808080808080808080808080808080808080808080808080808080808080808080808080808080808080808080808080808080808080808080808080809090909090909090909090909090909................................................................................................................................",
"................................................................................................................................................................................................090909090909090909090909090909090808080808080808080808080808080808080808080808080808080808080808080808080808080808080808080808080808080808080808080808080808080809090909090909090909090909090909................................................................................................................................",
"................................................................................................................................................................................................090909090909090909090909090909090808080808080808080808080808080808080808080808080808080808080808080808080808080808080808080808080808080808080808080808080808080809090909090909090909090909090909................................................................................................................................",
"................................................................................................................................0909090909090909090909090909090909090909090909090909090909090909080808080808080808080808080808080808080808080808080808080808080808080808080808080808080808080808080808080808080808080808080808080808080808080808080808080808080808080808080808080808080808080808090909090909090909090909090909090909090909090909090909090909090909090909090909090909090909090909................................",
"................................................................................................................................0909090909090909090909090909090909090909090909090909090909090909080808080808080808080808080808080808080808080808080808080808080808080808080808080808080808080808080808080808080808080808080808080808080808080808080808080808080808080808080808080808080808080808090909090909090909090909090909090909090909090909090909090909090909090909090909090909090909090909................................",
"................................................................................................................................0909090909090909090909090909090909090909090909090909090909090909080808080808080808080808080808080808080808080808080808080808080808080808080808080808080808080808080808080808080808080808080808080808080808080808080808080808080808080808080808080808080808080808090909090909090909090909090909090909090909090909090909090909090909090909090909090909090909090909................................",
"................................................................................................................................0909090909090909090909090909090909090909090909090909090909090909080808080808080808080808080808080808080808080808080808080808080808080808080808080808080808080808080808080808080808080808080808080808080808080808080808080808080808080808080808080808080808080808090909090909090909090909090909090909090909090909090909090909090909090909090909090909090909090909................................",
"................................................................................................................................0909090909090909090909090909090909090909090909090909090909090909080808080808080808080808080808080808080808080808080808080808080808080808080808080808080808080808080808080808080808080808080808080808080808080808080808080808080808080808080808080808080808080808090909090909090909090909090909090909090909090909090909090909090909090909090909090909090909090909................................",
"................................................................................................................................0909090909090909090909090909090909090909090909090909090909090909080808080808080808080808080808080808080808080808080808080808080808080808080808080808080808080808080808080808080808080808080808080808080808080808080808080808080808080808080808080808080808080808090909090909090909090909090909090909090909090909090909090909090909090909090909090909090909090909................................",
"................................................................................................................................0909090909090909090909090909090909090909090909090909090909090909080808080808080808080808080808080808080808080808080808080808080808080808080808080808080808080808080808080808080808080808080808080808080808080808080808080808080808080808080808080808080808080808090909090909090909090909090909090909090909090909090909090909090909090909090909090909090909090909................................",
"................................................................................................................................0909090909090909090909090909090909090909090909090909090909090909080808080808080808080808080808080808080808080808080808080808080808080808080808080808080808080808080808080808080808080808080808080808080808080808080808080808080808080808080808080808080808080808090909090909090909090909090909090909090909090909090909090909090909090909090909090909090909090909................................",
"................................................................................................................................0909090909090909090909090909090909090909090909090909090909090909080808080808080808080808080808080808080808080808080808080808080808080808080808080808080808080808080808080808080808080808080808080808080808080808080808080808080808080808080808080808080808080808090909090909090909090909090909090909090909090909090909090909090909090909090909090909090909090909................................",
"................................................................................................................................0909090909090909090909090909090909090909090909090909090909090909080808080808080808080808080808080808080808080808080808080808080808080808080808080808080808080808080808080808080808080808080808080808080808080808080808080808080808080808080808080808080808080808090909090909090909090909090909090909090909090909090909090909090909090909090909090909090909090909................................",
"................................................................................................................................0909090909090909090909090909090909090909090909090909090909090909080808080808080808080808080808080808080808080808080808080808080808080808080808080808080808080808080808080808080808080808080808080808080808080808080808080808080808080808080808080808080808080808090909090909090909090909090909090909090909090909090909090909090909090909090909090909090909090909................................",
"................................................................................................................................0909090909090909090909090909090909090909090909090909090909090909080808080808080808080808080808080808080808080808080808080808080808080808080808080808080808080808080808080808080808080808080808080808080808080808080808080808080808080808080808080808080808080808090909090909090909090909090909090909090909090909090909090909090909090909090909090909090909090909................................",
"................................................................................................................................0909090909090909090909090909090909090909090909090909090909090909080808080808080808080808080808080808080808080808080808080808080808080808080808080808080808080808080808080808080808080808080808080808080808080808080808080808080808080808080808080808080808080808090909090909090909090909090909090909090909090909090909090909090909090909090909090909090909090909................................",
"................................................................................................................................0909090909090909090909090909090909090909090909090909090909090909080808080808080808080808080808080808080808080808080808080808080808080808080808080808080808080808080808080808080808080808080808080808080808080808080808080808080808080808080808080808080808080808090909090909090909090909090909090909090909090909090909090909090909090909090909090909090909090909................................",
"................................................................................................................................0909090909090909090909090909090909090909090909090909090909090909080808080808080808080808080808080808080808080808080808080808080808080808080808080808080808080808080808080808080808080808080808080808080808080808080808080808080808080808080808080808080808080808090909090909090909090909090909090909090909090909090909090909090909090909090909090909090909090909................................",
"................................................................................................................................0909090909090909090909090909090909090909090909090909090909090909080808080808080808080808080808080808080808080808080808080808080808080808080808080808080808080808080808080808080808080808080808080808080808080808080808080808080808080808080808080808080808080808090909090909090909090909090909090909090909090909090909090909090909090909090909090909090909090909................................",
"................................................................................................................................090909090909090909090909090909090F0F0F0F0F0F0F0F0F0F0F0F0F0F0F0F0808080808080808080808080808080808080808080808080808080808080808080808080808080808080808080808080808080808080808080808080808080808080808080808080808080808080808080808080808080808080808080808080F0F0F0F0F0F0F0F0F0F0F0F0F0F0F0F0F0F0F0F0F0F0F0F0F0F0F0F0F0F0F0F09090909090909090909090909090909................................",
"................................................................................................................................090909090909090909090909090909090F0F0F0F0F0F0F0F0F0F0F0F0F0F0F0F0808080808080808080808080808080808080808080808080808080808080808080808080808080808080808080808080808080808080808080808080808080808080808080808080808080808080808080808080808080808080808080808080F0F0F0F0F0F0F0F0F0F0F0F0F0F0F0F0F0F0F0F0F0F0F0F0F0F0F0F0F0F0F0F09090909090909090909090909090909................................",
"................................................................................................................................090909090909090909090909090909090F0F0F0F0F0F0F0F0F0F0F0F0F0F0F0F0808080808080808080808080808080808080808080808080808080808080808080808080808080808080808080808080808080808080808080808080808080808080808080808080808080808080808080808080808080808080808080808080F0F0F0F0F0F0F0F0F0F0F0F0F0F0F0F0F0F0F0F0F0F0F0F0F0F0F0F0F0F0F0F09090909090909090909090909090909................................",
"................................................................................................................................090909090909090909090909090909090F0F0F0F0F0F0F0F0F0F0F0F0F0F0F0F0808080808080808080808080808080808080808080808080808080808080808080808080808080808080808080808080808080808080808080808080808080808080808080808080808080808080808080808080808080808080808080808080F0F0F0F0F0F0F0F0F0F0F0F0F0F0F0F0F0F0F0F0F0F0F0F0F0F0F0F0F0F0F0F09090909090909090909090909090909................................",
"................................................................................................................................090909090909090909090909090909090F0F0F0F0F0F0F0F0F0F0F0F0F0F0F0F0808080808080808080808080808080808080808080808080808080808080808080808080808080808080808080808080808080808080808080808080808080808080808080808080808080808080808080808080808080808080808080808080F0F0F0F0F0F0F0F0F0F0F0F0F0F0F0F0F0F0F0F0F0F0F0F0F0F0F0F0F0F0F0F09090909090909090909090909090909................................",
"................................................................................................................................090909090909090909090909090909090F0F0F0F0F0F0F0F0F0F0F0F0F0F0F0F0808080808080808080808080808080808080808080808080808080808080808080808080808080808080808080808080808080808080808080808080808080808080808080808080808080808080808080808080808080808080808080808080F0F0F0F0F0F0F0F0F0F0F0F0F0F0F0F0F0F0F0F0F0F0F0F0F0F0F0F0F0F0F0F09090909090909090909090909090909................................",
"................................................................................................................................090909090909090909090909090909090F0F0F0F0F0F0F0F0F0F0F0F0F0F0F0F0808080808080808080808080808080808080808080808080808080808080808080808080808080808080808080808080808080808080808080808080808080808080808080808080808080808080808080808080808080808080808080808080F0F0F0F0F0F0F0F0F0F0F0F0F0F0F0F0F0F0F0F0F0F0F0F0F0F0F0F0F0F0F0F09090909090909090909090909090909................................",
"................................................................................................................................090909090909090909090909090909090F0F0F0F0F0F0F0F0F0F0F0F0F0F0F0F0808080808080808080808080808080808080808080808080808080808080808080808080808080808080808080808080808080808080808080808080808080808080808080808080808080808080808080808080808080808080808080808080F0F0F0F0F0F0F0F0F0F0F0F0F0F0F0F0F0F0F0F0F0F0F0F0F0F0F0F0F0F0F0F09090909090909090909090909090909................................",
"................................................................................................................................090909090909090909090909090909090F0F0F0F0F0F0F0F0F0F0F0F0F0F0F0F0808080808080808080808080808080808080808080808080808080808080808080808080808080808080808080808080808080808080808080808080808080808080808080808080808080808080808080808080808080808080808080808080F0F0F0F0F0F0F0F0F0F0F0F0F0F0F0F0F0F0F0F0F0F0F0F0F0F0F0F0F0F0F0F09090909090909090909090909090909................................",
"................................................................................................................................090909090909090909090909090909090F0F0F0F0F0F0F0F0F0F0F0F0F0F0F0F0808080808080808080808080808080808080808080808080808080808080808080808080808080808080808080808080808080808080808080808080808080808080808080808080808080808080808080808080808080808080808080808080F0F0F0F0F0F0F0F0F0F0F0F0F0F0F0F0F0F0F0F0F0F0F0F0F0F0F0F0F0F0F0F09090909090909090909090909090909................................",
"................................................................................................................................090909090909090909090909090909090F0F0F0F0F0F0F0F0F0F0F0F0F0F0F0F0808080808080808080808080808080808080808080808080808080808080808080808080808080808080808080808080808080808080808080808080808080808080808080808080808080808080808080808080808080808080808080808080F0F0F0F0F0F0F0F0F0F0F0F0F0F0F0F0F0F0F0F0F0F0F0F0F0F0F0F0F0F0F0F09090909090909090909090909090909................................",
"................................................................................................................................090909090909090909090909090909090F0F0F0F0F0F0F0F0F0F0F0F0F0F0F0F0808080808080808080808080808080808080808080808080808080808080808080808080808080808080808080808080808080808080808080808080808080808080808080808080808080808080808080808080808080808080808080808080F0F0F0F0F0F0F0F0F0F0F0F0F0F0F0F0F0F0F0F0F0F0F0F0F0F0F0F0F0F0F0F09090909090909090909090909090909................................",
"................................................................................................................................090909090909090909090909090909090F0F0F0F0F0F0F0F0F0F0F0F0F0F0F0F0808080808080808080808080808080808080808080808080808080808080808080808080808080808080808080808080808080808080808080808080808080808080808080808080808080808080808080808080808080808080808080808080F0F0F0F0F0F0F0F0F0F0F0F0F0F0F0F0F0F0F0F0F0F0F0F0F0F0F0F0F0F0F0F09090909090909090909090909090909................................",
"................................................................................................................................090909090909090909090909090909090F0F0F0F0F0F0F0F0F0F0F0F0F0F0F0F0808080808080808080808080808080808080808080808080808080808080808080808080808080808080808080808080808080808080808080808080808080808080808080808080808080808080808080808080808080808080808080808080F0F0F0F0F0F0F0F0F0F0F0F0F0F0F0F0F0F0F0F0F0F0F0F0F0F0F0F0F0F0F0F09090909090909090909090909090909................................",
"................................................................................................................................090909090909090909090909090909090F0F0F0F0F0F0F0F0F0F0F0F0F0F0F0F0808080808080808080808080808080808080808080808080808080808080808080808080808080808080808080808080808080808080808080808080808080808080808080808080808080808080808080808080808080808080808080808080F0F0F0F0F0F0F0F0F0F0F0F0F0F0F0F0F0F0F0F0F0F0F0F0F0F0F0F0F0F0F0F09090909090909090909090909090909................................",
"................................................................................................................................090909090909090909090909090909090F0F0F0F0F0F0F0F0F0F0F0F0F0F0F0F0808080808080808080808080808080808080808080808080808080808080808080808080808080808080808080808080808080808080808080808080808080808080808080808080808080808080808080808080808080808080808080808080F0F0F0F0F0F0F0F0F0F0F0F0F0F0F0F0F0F0F0F0F0F0F0F0F0F0F0F0F0F0F0F09090909090909090909090909090909................................",
"................................................................................................................................................................................................0F0F0F0F0F0F0F0F0F0F0F0F0F0F0F0F080808080808080808080808080808080808080808080808080808080808080808080808080808080808080808080808080808080808080808080808080808080F0F0F0F0F0F0F0F0F0F0F0F0F0F0F0F................................................................................................................................",
"................................................................................................................................................................................................0F0F0F0F0F0F0F0F0F0F0F0F0F0F0F0F080808080808080808080808080808080808080808080808080808080808080808080808080808080808080808080808080808080808080808080808080808080F0F0F0F0F0F0F0F0F0F0F0F0F0F0F0F................................................................................................................................",
"................................................................................................................................................................................................0F0F0F0F0F0F0F0F0F0F0F0F0F0F0F0F080808080808080808080808080808080808080808080808080808080808080808080808080808080808080808080808080808080808080808080808080808080F0F0F0F0F0F0F0F0F0F0F0F0F0F0F0F................................................................................................................................",
"................................................................................................................................................................................................0F0F0F0F0F0F0F0F0F0F0F0F0F0F0F0F080808080808080808080808080808080808080808080808080808080808080808080808080808080808080808080808080808080808080808080808080808080F0F0F0F0F0F0F0F0F0F0F0F0F0F0F0F................................................................................................................................",
"................................................................................................................................................................................................0F0F0F0F0F0F0F0F0F0F0F0F0F0F0F0F080808080808080808080808080808080808080808080808080808080808080808080808080808080808080808080808080808080808080808080808080808080F0F0F0F0F0F0F0F0F0F0F0F0F0F0F0F................................................................................................................................",
"................................................................................................................................................................................................0F0F0F0F0F0F0F0F0F0F0F0F0F0F0F0F080808080808080808080808080808080808080808080808080808080808080808080808080808080808080808080808080808080808080808080808080808080F0F0F0F0F0F0F0F0F0F0F0F0F0F0F0F................................................................................................................................",
"................................................................................................................................................................................................0F0F0F0F0F0F0F0F0F0F0F0F0F0F0F0F080808080808080808080808080808080808080808080808080808080808080808080808080808080808080808080808080808080808080808080808080808080F0F0F0F0F0F0F0F0F0F0F0F0F0F0F0F................................................................................................................................",
"................................................................................................................................................................................................0F0F0F0F0F0F0F0F0F0F0F0F0F0F0F0F080808080808080808080808080808080808080808080808080808080808080808080808080808080808080808080808080808080808080808080808080808080F0F0F0F0F0F0F0F0F0F0F0F0F0F0F0F................................................................................................................................",
"................................................................................................................................................................................................0F0F0F0F0F0F0F0F0F0F0F0F0F0F0F0F080808080808080808080808080808080808080808080808080808080808080808080808080808080808080808080808080808080808080808080808080808080F0F0F0F0F0F0F0F0F0F0F0F0F0F0F0F................................................................................................................................",
"................................................................................................................................................................................................0F0F0F0F0F0F0F0F0F0F0F0F0F0F0F0F080808080808080808080808080808080808080808080808080808080808080808080808080808080808080808080808080808080808080808080808080808080F0F0F0F0F0F0F0F0F0F0F0F0F0F0F0F................................................................................................................................",
"................................................................................................................................................................................................0F0F0F0F0F0F0F0F0F0F0F0F0F0F0F0F080808080808080808080808080808080808080808080808080808080808080808080808080808080808080808080808080808080808080808080808080808080F0F0F0F0F0F0F0F0F0F0F0F0F0F0F0F................................................................................................................................",
"................................................................................................................................................................................................0F0F0F0F0F0F0F0F0F0F0F0F0F0F0F0F080808080808080808080808080808080808080808080808080808080808080808080808080808080808080808080808080808080808080808080808080808080F0F0F0F0F0F0F0F0F0F0F0F0F0F0F0F................................................................................................................................",
"................................................................................................................................................................................................0F0F0F0F0F0F0F0F0F0F0F0F0F0F0F0F080808080808080808080808080808080808080808080808080808080808080808080808080808080808080808080808080808080808080808080808080808080F0F0F0F0F0F0F0F0F0F0F0F0F0F0F0F................................................................................................................................",
"................................................................................................................................................................................................0F0F0F0F0F0F0F0F0F0F0F0F0F0F0F0F080808080808080808080808080808080808080808080808080808080808080808080808080808080808080808080808080808080808080808080808080808080F0F0F0F0F0F0F0F0F0F0F0F0F0F0F0F................................................................................................................................",
"................................................................................................................................................................................................0F0F0F0F0F0F0F0F0F0F0F0F0F0F0F0F080808080808080808080808080808080808080808080808080808080808080808080808080808080808080808080808080808080808080808080808080808080F0F0F0F0F0F0F0F0F0F0F0F0F0F0F0F................................................................................................................................",
"................................................................................................................................................................................................0F0F0F0F0F0F0F0F0F0F0F0F0F0F0F0F080808080808080808080808080808080808080808080808080808080808080808080808080808080808080808080808080808080808080808080808080808080F0F0F0F0F0F0F0F0F0F0F0F0F0F0F0F................................................................................................................................",
"................................................................................................................................................................................................0F0F0F0F0F0F0F0F0F0F0F0F0F0F0F0F080808080808080808080808080808080F0F0F0F0F0F0F0F0F0F0F0F0F0F0F0F0F0F0F0F0F0F0F0F0F0F0F0F0F0F0F0F080808080808080808080808080808080F0F0F0F0F0F0F0F0F0F0F0F0F0F0F0F................................0G0G0G0G0G0G0G0G0G0G0G0G0G0G0G0G................................................................",
"................................................................................................................................................................................................0F0F0F0F0F0F0F0F0F0F0F0F0F0F0F0F080808080808080808080808080808080F0F0F0F0F0F0F0F0F0F0F0F0F0F0F0F0F0F0F0F0F0F0F0F0F0F0F0F0F0F0F0F080808080808080808080808080808080F0F0F0F0F0F0F0F0F0F0F0F0F0F0F0F................................0G0G0G0G0G0G0G0G0G0G0G0G0G0G0G0G................................................................",
"................................................................................................................................................................................................0F0F0F0F0F0F0F0F0F0F0F0F0F0F0F0F080808080808080808080808080808080F0F0F0F0F0F0F0F0F0F0F0F0F0F0F0F0F0F0F0F0F0F0F0F0F0F0F0F0F0F0F0F080808080808080808080808080808080F0F0F0F0F0F0F0F0F0F0F0F0F0F0F0F................................0G0G0G0G0G0G0G0G0G0G0G0G0G0G0G0G................................................................",
"................................................................................................................................................................................................0F0F0F0F0F0F0F0F0F0F0F0F0F0F0F0F080808080808080808080808080808080F0F0F0F0F0F0F0F0F0F0F0F0F0F0F0F0F0F0F0F0F0F0F0F0F0F0F0F0F0F0F0F080808080808080808080808080808080F0F0F0F0F0F0F0F0F0F0F0F0F0F0F0F................................0G0G0G0G0G0G0G0G0G0G0G0G0G0G0G0G................................................................",
"................................................................................................................................................................................................0F0F0F0F0F0F0F0F0F0F0F0F0F0F0F0F080808080808080808080808080808080F0F0F0F0F0F0F0F0F0F0F0F0F0F0F0F0F0F0F0F0F0F0F0F0F0F0F0F0F0F0F0F080808080808080808080808080808080F0F0F0F0F0F0F0F0F0F0F0F0F0F0F0F................................0G0G0G0G0G0G0G0G0G0G0G0G0G0G0G0G................................................................",
"................................................................................................................................................................................................0F0F0F0F0F0F0F0F0F0F0F0F0F0F0F0F080808080808080808080808080808080F0F0F0F0F0F0F0F0F0F0F0F0F0F0F0F0F0F0F0F0F0F0F0F0F0F0F0F0F0F0F0F080808080808080808080808080808080F0F0F0F0F0F0F0F0F0F0F0F0F0F0F0F................................0G0G0G0G0G0G0G0G0G0G0G0G0G0G0G0G................................................................",
"................................................................................................................................................................................................0F0F0F0F0F0F0F0F0F0F0F0F0F0F0F0F080808080808080808080808080808080F0F0F0F0F0F0F0F0F0F0F0F0F0F0F0F0F0F0F0F0F0F0F0F0F0F0F0F0F0F0F0F080808080808080808080808080808080F0F0F0F0F0F0F0F0F0F0F0F0F0F0F0F................................0G0G0G0G0G0G0G0G0G0G0G0G0G0G0G0G................................................................",
"................................................................................................................................................................................................0F0F0F0F0F0F0F0F0F0F0F0F0F0F0F0F080808080808080808080808080808080F0F0F0F0F0F0F0F0F0F0F0F0F0F0F0F0F0F0F0F0F0F0F0F0F0F0F0F0F0F0F0F080808080808080808080808080808080F0F0F0F0F0F0F0F0F0F0F0F0F0F0F0F................................0G0G0G0G0G0G0G0G0G0G0G0G0G0G0G0G................................................................",
"................................................................................................................................................................................................0F0F0F0F0F0F0F0F0F0F0F0F0F0F0F0F080808080808080808080808080808080F0F0F0F0F0F0F0F0F0F0F0F0F0F0F0F0F0F0F0F0F0F0F0F0F0F0F0F0F0F0F0F080808080808080808080808080808080F0F0F0F0F0F0F0F0F0F0F0F0F0F0F0F................................0G0G0G0G0G0G0G0G0G0G0G0G0G0G0G0G................................................................",
"................................................................................................................................................................................................0F0F0F0F0F0F0F0F0F0F0F0F0F0F0F0F080808080808080808080808080808080F0F0F0F0F0F0F0F0F0F0F0F0F0F0F0F0F0F0F0F0F0F0F0F0F0F0F0F0F0F0F0F080808080808080808080808080808080F0F0F0F0F0F0F0F0F0F0F0F0F0F0F0F................................0G0G0G0G0G0G0G0G0G0G0G0G0G0G0G0G................................................................",
"................................................................................................................................................................................................0F0F0F0F0F0F0F0F0F0F0F0F0F0F0F0F080808080808080808080808080808080F0F0F0F0F0F0F0F0F0F0F0F0F0F0F0F0F0F0F0F0F0F0F0F0F0F0F0F0F0F0F0F080808080808080808080808080808080F0F0F0F0F0F0F0F0F0F0F0F0F0F0F0F................................0G0G0G0G0G0G0G0G0G0G0G0G0G0G0G0G................................................................",
"................................................................................................................................................................................................0F0F0F0F0F0F0F0F0F0F0F0F0F0F0F0F080808080808080808080808080808080F0F0F0F0F0F0F0F0F0F0F0F0F0F0F0F0F0F0F0F0F0F0F0F0F0F0F0F0F0F0F0F080808080808080808080808080808080F0F0F0F0F0F0F0F0F0F0F0F0F0F0F0F................................0G0G0G0G0G0G0G0G0G0G0G0G0G0G0G0G................................................................",
"................................................................................................................................................................................................0F0F0F0F0F0F0F0F0F0F0F0F0F0F0F0F080808080808080808080808080808080F0F0F0F0F0F0F0F0F0F0F0F0F0F0F0F0F0F0F0F0F0F0F0F0F0F0F0F0F0F0F0F080808080808080808080808080808080F0F0F0F0F0F0F0F0F0F0F0F0F0F0F0F................................0G0G0G0G0G0G0G0G0G0G0G0G0G0G0G0G................................................................",
"................................................................................................................................................................................................0F0F0F0F0F0F0F0F0F0F0F0F0F0F0F0F080808080808080808080808080808080F0F0F0F0F0F0F0F0F0F0F0F0F0F0F0F0F0F0F0F0F0F0F0F0F0F0F0F0F0F0F0F080808080808080808080808080808080F0F0F0F0F0F0F0F0F0F0F0F0F0F0F0F................................0G0G0G0G0G0G0G0G0G0G0G0G0G0G0G0G................................................................",
"................................................................................................................................................................................................0F0F0F0F0F0F0F0F0F0F0F0F0F0F0F0F080808080808080808080808080808080F0F0F0F0F0F0F0F0F0F0F0F0F0F0F0F0F0F0F0F0F0F0F0F0F0F0F0F0F0F0F0F080808080808080808080808080808080F0F0F0F0F0F0F0F0F0F0F0F0F0F0F0F................................0G0G0G0G0G0G0G0G0G0G0G0G0G0G0G0G................................................................",
"................................................................................................................................................................................................0F0F0F0F0F0F0F0F0F0F0F0F0F0F0F0F080808080808080808080808080808080F0F0F0F0F0F0F0F0F0F0F0F0F0F0F0F0F0F0F0F0F0F0F0F0F0F0F0F0F0F0F0F080808080808080808080808080808080F0F0F0F0F0F0F0F0F0F0F0F0F0F0F0F................................0G0G0G0G0G0G0G0G0G0G0G0G0G0G0G0G................................................................",
"................................................................................................................................................................................................0F0F0F0F0F0F0F0F0F0F0F0F0F0F0F0F0F0F0F0F0F0F0F0F0F0F0F0F0F0F0F0F................................................................0F0F0F0F0F0F0F0F0F0F0F0F0F0F0F0F0F0F0F0F0F0F0F0F0F0F0F0F0F0F0F0F................................................................................................................................",
"................................................................................................................................................................................................0F0F0F0F0F0F0F0F0F0F0F0F0F0F0F0F0F0F0F0F0F0F0F0F0F0F0F0F0F0F0F0F................................................................0F0F0F0F0F0F0F0F0F0F0F0F0F0F0F0F0F0F0F0F0F0F0F0F0F0F0F0F0F0F0F0F................................................................................................................................",
"................................................................................................................................................................................................0F0F0F0F0F0F0F0F0F0F0F0F0F0F0F0F0F0F0F0F0F0F0F0F0F0F0F0F0F0F0F0F................................................................0F0F0F0F0F0F0F0F0F0F0F0F0F0F0F0F0F0F0F0F0F0F0F0F0F0F0F0F0F0F0F0F................................................................................................................................",
"................................................................................................................................................................................................0F0F0F0F0F0F0F0F0F0F0F0F0F0F0F0F0F0F0F0F0F0F0F0F0F0F0F0F0F0F0F0F................................................................0F0F0F0F0F0F0F0F0F0F0F0F0F0F0F0F0F0F0F0F0F0F0F0F0F0F0F0F0F0F0F0F................................................................................................................................",
"................................................................................................................................................................................................0F0F0F0F0F0F0F0F0F0F0F0F0F0F0F0F0F0F0F0F0F0F0F0F0F0F0F0F0F0F0F0F................................................................0F0F0F0F0F0F0F0F0F0F0F0F0F0F0F0F0F0F0F0F0F0F0F0F0F0F0F0F0F0F0F0F................................................................................................................................",
"................................................................................................................................................................................................0F0F0F0F0F0F0F0F0F0F0F0F0F0F0F0F0F0F0F0F0F0F0F0F0F0F0F0F0F0F0F0F................................................................0F0F0F0F0F0F0F0F0F0F0F0F0F0F0F0F0F0F0F0F0F0F0F0F0F0F0F0F0F0F0F0F................................................................................................................................",
"................................................................................................................................................................................................0F0F0F0F0F0F0F0F0F0F0F0F0F0F0F0F0F0F0F0F0F0F0F0F0F0F0F0F0F0F0F0F................................................................0F0F0F0F0F0F0F0F0F0F0F0F0F0F0F0F0F0F0F0F0F0F0F0F0F0F0F0F0F0F0F0F................................................................................................................................",
"................................................................................................................................................................................................0F0F0F0F0F0F0F0F0F0F0F0F0F0F0F0F0F0F0F0F0F0F0F0F0F0F0F0F0F0F0F0F................................................................0F0F0F0F0F0F0F0F0F0F0F0F0F0F0F0F0F0F0F0F0F0F0F0F0F0F0F0F0F0F0F0F................................................................................................................................",
"................................................................................................................................................................................................0F0F0F0F0F0F0F0F0F0F0F0F0F0F0F0F0F0F0F0F0F0F0F0F0F0F0F0F0F0F0F0F................................................................0F0F0F0F0F0F0F0F0F0F0F0F0F0F0F0F0F0F0F0F0F0F0F0F0F0F0F0F0F0F0F0F................................................................................................................................",
"................................................................................................................................................................................................0F0F0F0F0F0F0F0F0F0F0F0F0F0F0F0F0F0F0F0F0F0F0F0F0F0F0F0F0F0F0F0F................................................................0F0F0F0F0F0F0F0F0F0F0F0F0F0F0F0F0F0F0F0F0F0F0F0F0F0F0F0F0F0F0F0F................................................................................................................................",
"................................................................................................................................................................................................0F0F0F0F0F0F0F0F0F0F0F0F0F0F0F0F0F0F0F0F0F0F0F0F0F0F0F0F0F0F0F0F................................................................0F0F0F0F0F0F0F0F0F0F0F0F0F0F0F0F0F0F0F0F0F0F0F0F0F0F0F0F0F0F0F0F................................................................................................................................",
"................................................................................................................................................................................................0F0F0F0F0F0F0F0F0F0F0F0F0F0F0F0F0F0F0F0F0F0F0F0F0F0F0F0F0F0F0F0F................................................................0F0F0F0F0F0F0F0F0F0F0F0F0F0F0F0F0F0F0F0F0F0F0F0F0F0F0F0F0F0F0F0F................................................................................................................................",
"................................................................................................................................................................................................0F0F0F0F0F0F0F0F0F0F0F0F0F0F0F0F0F0F0F0F0F0F0F0F0F0F0F0F0F0F0F0F................................................................0F0F0F0F0F0F0F0F0F0F0F0F0F0F0F0F0F0F0F0F0F0F0F0F0F0F0F0F0F0F0F0F................................................................................................................................",
"................................................................................................................................................................................................0F0F0F0F0F0F0F0F0F0F0F0F0F0F0F0F0F0F0F0F0F0F0F0F0F0F0F0F0F0F0F0F................................................................0F0F0F0F0F0F0F0F0F0F0F0F0F0F0F0F0F0F0F0F0F0F0F0F0F0F0F0F0F0F0F0F................................................................................................................................",
"................................................................................................................................................................................................0F0F0F0F0F0F0F0F0F0F0F0F0F0F0F0F0F0F0F0F0F0F0F0F0F0F0F0F0F0F0F0F................................................................0F0F0F0F0F0F0F0F0F0F0F0F0F0F0F0F0F0F0F0F0F0F0F0F0F0F0F0F0F0F0F0F................................................................................................................................",
"................................................................................................................................................................................................0F0F0F0F0F0F0F0F0F0F0F0F0F0F0F0F0F0F0F0F0F0F0F0F0F0F0F0F0F0F0F0F................................................................0F0F0F0F0F0F0F0F0F0F0F0F0F0F0F0F0F0F0F0F0F0F0F0F0F0F0F0F0F0F0F0F................................................................................................................................",
"................................................................................................................................................................................................0F0F0F0F0F0F0F0F0F0F0F0F0F0F0F0F0F0F0F0F0F0F0F0F0F0F0F0F0F0F0F0F................................................................0F0F0F0F0F0F0F0F0F0F0F0F0F0F0F0F0F0F0F0F0F0F0F0F0F0F0F0F0F0F0F0F................................................................................................................................",
"................................................................................................................................................................................................0F0F0F0F0F0F0F0F0F0F0F0F0F0F0F0F0F0F0F0F0F0F0F0F0F0F0F0F0F0F0F0F................................................................0F0F0F0F0F0F0F0F0F0F0F0F0F0F0F0F0F0F0F0F0F0F0F0F0F0F0F0F0F0F0F0F................................................................................................................................",
"................................................................................................................................................................................................0F0F0F0F0F0F0F0F0F0F0F0F0F0F0F0F0F0F0F0F0F0F0F0F0F0F0F0F0F0F0F0F................................................................0F0F0F0F0F0F0F0F0F0F0F0F0F0F0F0F0F0F0F0F0F0F0F0F0F0F0F0F0F0F0F0F................................................................................................................................",
"................................................................................................................................................................................................0F0F0F0F0F0F0F0F0F0F0F0F0F0F0F0F0F0F0F0F0F0F0F0F0F0F0F0F0F0F0F0F................................................................0F0F0F0F0F0F0F0F0F0F0F0F0F0F0F0F0F0F0F0F0F0F0F0F0F0F0F0F0F0F0F0F................................................................................................................................",
"................................................................................................................................................................................................0F0F0F0F0F0F0F0F0F0F0F0F0F0F0F0F0F0F0F0F0F0F0F0F0F0F0F0F0F0F0F0F................................................................0F0F0F0F0F0F0F0F0F0F0F0F0F0F0F0F0F0F0F0F0F0F0F0F0F0F0F0F0F0F0F0F................................................................................................................................",
"................................................................................................................................................................................................0F0F0F0F0F0F0F0F0F0F0F0F0F0F0F0F0F0F0F0F0F0F0F0F0F0F0F0F0F0F0F0F................................................................0F0F0F0F0F0F0F0F0F0F0F0F0F0F0F0F0F0F0F0F0F0F0F0F0F0F0F0F0F0F0F0F................................................................................................................................",
"................................................................................................................................................................................................0F0F0F0F0F0F0F0F0F0F0F0F0F0F0F0F0F0F0F0F0F0F0F0F0F0F0F0F0F0F0F0F................................................................0F0F0F0F0F0F0F0F0F0F0F0F0F0F0F0F0F0F0F0F0F0F0F0F0F0F0F0F0F0F0F0F................................................................................................................................",
"................................................................................................................................................................................................0F0F0F0F0F0F0F0F0F0F0F0F0F0F0F0F0F0F0F0F0F0F0F0F0F0F0F0F0F0F0F0F................................................................0F0F0F0F0F0F0F0F0F0F0F0F0F0F0F0F0F0F0F0F0F0F0F0F0F0F0F0F0F0F0F0F................................................................................................................................",
"................................................................................................................................................................................................0F0F0F0F0F0F0F0F0F0F0F0F0F0F0F0F0F0F0F0F0F0F0F0F0F0F0F0F0F0F0F0F................................................................0F0F0F0F0F0F0F0F0F0F0F0F0F0F0F0F0F0F0F0F0F0F0F0F0F0F0F0F0F0F0F0F................................................................................................................................",
"................................................................................................................................................................................................0F0F0F0F0F0F0F0F0F0F0F0F0F0F0F0F0F0F0F0F0F0F0F0F0F0F0F0F0F0F0F0F................................................................0F0F0F0F0F0F0F0F0F0F0F0F0F0F0F0F0F0F0F0F0F0F0F0F0F0F0F0F0F0F0F0F................................................................................................................................",
"................................................................................................................................................................................................0F0F0F0F0F0F0F0F0F0F0F0F0F0F0F0F0F0F0F0F0F0F0F0F0F0F0F0F0F0F0F0F................................................................0F0F0F0F0F0F0F0F0F0F0F0F0F0F0F0F0F0F0F0F0F0F0F0F0F0F0F0F0F0F0F0F................................................................................................................................",
"................................................................................................................................................................................................0F0F0F0F0F0F0F0F0F0F0F0F0F0F0F0F0F0F0F0F0F0F0F0F0F0F0F0F0F0F0F0F................................................................0F0F0F0F0F0F0F0F0F0F0F0F0F0F0F0F0F0F0F0F0F0F0F0F0F0F0F0F0F0F0F0F................................................................................................................................",
"................................................................................................................................................................................................0F0F0F0F0F0F0F0F0F0F0F0F0F0F0F0F0F0F0F0F0F0F0F0F0F0F0F0F0F0F0F0F................................................................0F0F0F0F0F0F0F0F0F0F0F0F0F0F0F0F0F0F0F0F0F0F0F0F0F0F0F0F0F0F0F0F................................................................................................................................",
"................................................................................................................................................................................................0F0F0F0F0F0F0F0F0F0F0F0F0F0F0F0F0F0F0F0F0F0F0F0F0F0F0F0F0F0F0F0F................................................................0F0F0F0F0F0F0F0F0F0F0F0F0F0F0F0F0F0F0F0F0F0F0F0F0F0F0F0F0F0F0F0F................................................................................................................................",
"................................................................................................................................................................................................0F0F0F0F0F0F0F0F0F0F0F0F0F0F0F0F0F0F0F0F0F0F0F0F0F0F0F0F0F0F0F0F................................................................0F0F0F0F0F0F0F0F0F0F0F0F0F0F0F0F0F0F0F0F0F0F0F0F0F0F0F0F0F0F0F0F................................................................................................................................",
"................................................................................................................................................................................................0F0F0F0F0F0F0F0F0F0F0F0F0F0F0F0F0F0F0F0F0F0F0F0F0F0F0F0F0F0F0F0F................................................................0F0F0F0F0F0F0F0F0F0F0F0F0F0F0F0F0F0F0F0F0F0F0F0F0F0F0F0F0F0F0F0F................................................................................................................................",
"................................................................................................................................................................................................0G0G0G0G0G0G0G0G0G0G0G0G0G0G0G0G0G0G0G0G0G0G0G0G0G0G0G0G0G0G0G0G................................................................0G0G0G0G0G0G0G0G0G0G0G0G0G0G0G0G0G0G0G0G0G0G0G0G0G0G0G0G0G0G0G0G................................................................................................................................",
"................................................................................................................................................................................................0G0G0G0G0G0G0G0G0G0G0G0G0G0G0G0G0G0G0G0G0G0G0G0G0G0G0G0G0G0G0G0G................................................................0G0G0G0G0G0G0G0G0G0G0G0G0G0G0G0G0G0G0G0G0G0G0G0G0G0G0G0G0G0G0G0G................................................................................................................................",
"................................................................................................................................................................................................0G0G0G0G0G0G0G0G0G0G0G0G0G0G0G0G0G0G0G0G0G0G0G0G0G0G0G0G0G0G0G0G................................................................0G0G0G0G0G0G0G0G0G0G0G0G0G0G0G0G0G0G0G0G0G0G0G0G0G0G0G0G0G0G0G0G................................................................................................................................",
"................................................................................................................................................................................................0G0G0G0G0G0G0G0G0G0G0G0G0G0G0G0G0G0G0G0G0G0G0G0G0G0G0G0G0G0G0G0G................................................................0G0G0G0G0G0G0G0G0G0G0G0G0G0G0G0G0G0G0G0G0G0G0G0G0G0G0G0G0G0G0G0G................................................................................................................................",
"................................................................................................................................................................................................0G0G0G0G0G0G0G0G0G0G0G0G0G0G0G0G0G0G0G0G0G0G0G0G0G0G0G0G0G0G0G0G................................................................0G0G0G0G0G0G0G0G0G0G0G0G0G0G0G0G0G0G0G0G0G0G0G0G0G0G0G0G0G0G0G0G................................................................................................................................",
"................................................................................................................................................................................................0G0G0G0G0G0G0G0G0G0G0G0G0G0G0G0G0G0G0G0G0G0G0G0G0G0G0G0G0G0G0G0G................................................................0G0G0G0G0G0G0G0G0G0G0G0G0G0G0G0G0G0G0G0G0G0G0G0G0G0G0G0G0G0G0G0G................................................................................................................................",
"................................................................................................................................................................................................0G0G0G0G0G0G0G0G0G0G0G0G0G0G0G0G0G0G0G0G0G0G0G0G0G0G0G0G0G0G0G0G................................................................0G0G0G0G0G0G0G0G0G0G0G0G0G0G0G0G0G0G0G0G0G0G0G0G0G0G0G0G0G0G0G0G................................................................................................................................",
"................................................................................................................................................................................................0G0G0G0G0G0G0G0G0G0G0G0G0G0G0G0G0G0G0G0G0G0G0G0G0G0G0G0G0G0G0G0G................................................................0G0G0G0G0G0G0G0G0G0G0G0G0G0G0G0G0G0G0G0G0G0G0G0G0G0G0G0G0G0G0G0G................................................................................................................................",
"................................................................................................................................................................................................0G0G0G0G0G0G0G0G0G0G0G0G0G0G0G0G0G0G0G0G0G0G0G0G0G0G0G0G0G0G0G0G................................................................0G0G0G0G0G0G0G0G0G0G0G0G0G0G0G0G0G0G0G0G0G0G0G0G0G0G0G0G0G0G0G0G................................................................................................................................",
"................................................................................................................................................................................................0G0G0G0G0G0G0G0G0G0G0G0G0G0G0G0G0G0G0G0G0G0G0G0G0G0G0G0G0G0G0G0G................................................................0G0G0G0G0G0G0G0G0G0G0G0G0G0G0G0G0G0G0G0G0G0G0G0G0G0G0G0G0G0G0G0G................................................................................................................................",
"................................................................................................................................................................................................0G0G0G0G0G0G0G0G0G0G0G0G0G0G0G0G0G0G0G0G0G0G0G0G0G0G0G0G0G0G0G0G................................................................0G0G0G0G0G0G0G0G0G0G0G0G0G0G0G0G0G0G0G0G0G0G0G0G0G0G0G0G0G0G0G0G................................................................................................................................",
"................................................................................................................................................................................................0G0G0G0G0G0G0G0G0G0G0G0G0G0G0G0G0G0G0G0G0G0G0G0G0G0G0G0G0G0G0G0G................................................................0G0G0G0G0G0G0G0G0G0G0G0G0G0G0G0G0G0G0G0G0G0G0G0G0G0G0G0G0G0G0G0G................................................................................................................................",
"................................................................................................................................................................................................0G0G0G0G0G0G0G0G0G0G0G0G0G0G0G0G0G0G0G0G0G0G0G0G0G0G0G0G0G0G0G0G................................................................0G0G0G0G0G0G0G0G0G0G0G0G0G0G0G0G0G0G0G0G0G0G0G0G0G0G0G0G0G0G0G0G................................................................................................................................",
"................................................................................................................................................................................................0G0G0G0G0G0G0G0G0G0G0G0G0G0G0G0G0G0G0G0G0G0G0G0G0G0G0G0G0G0G0G0G................................................................0G0G0G0G0G0G0G0G0G0G0G0G0G0G0G0G0G0G0G0G0G0G0G0G0G0G0G0G0G0G0G0G................................................................................................................................",
"................................................................................................................................................................................................0G0G0G0G0G0G0G0G0G0G0G0G0G0G0G0G0G0G0G0G0G0G0G0G0G0G0G0G0G0G0G0G................................................................0G0G0G0G0G0G0G0G0G0G0G0G0G0G0G0G0G0G0G0G0G0G0G0G0G0G0G0G0G0G0G0G................................................................................................................................",
"................................................................................................................................................................................................0G0G0G0G0G0G0G0G0G0G0G0G0G0G0G0G0G0G0G0G0G0G0G0G0G0G0G0G0G0G0G0G................................................................0G0G0G0G0G0G0G0G0G0G0G0G0G0G0G0G0G0G0G0G0G0G0G0G0G0G0G0G0G0G0G0G................................................................................................................................",
"................................................................................................................................................................................................0G0G0G0G0G0G0G0G0G0G0G0G0G0G0G0G0G0G0G0G0G0G0G0G0G0G0G0G0G0G0G0G................................................................0G0G0G0G0G0G0G0G0G0G0G0G0G0G0G0G0G0G0G0G0G0G0G0G0G0G0G0G0G0G0G0G................................................................................................................................",
"................................................................................................................................................................................................0G0G0G0G0G0G0G0G0G0G0G0G0G0G0G0G0G0G0G0G0G0G0G0G0G0G0G0G0G0G0G0G................................................................0G0G0G0G0G0G0G0G0G0G0G0G0G0G0G0G0G0G0G0G0G0G0G0G0G0G0G0G0G0G0G0G................................................................................................................................",
"................................................................................................................................................................................................0G0G0G0G0G0G0G0G0G0G0G0G0G0G0G0G0G0G0G0G0G0G0G0G0G0G0G0G0G0G0G0G................................................................0G0G0G0G0G0G0G0G0G0G0G0G0G0G0G0G0G0G0G0G0G0G0G0G0G0G0G0G0G0G0G0G................................................................................................................................",
"................................................................................................................................................................................................0G0G0G0G0G0G0G0G0G0G0G0G0G0G0G0G0G0G0G0G0G0G0G0G0G0G0G0G0G0G0G0G................................................................0G0G0G0G0G0G0G0G0G0G0G0G0G0G0G0G0G0G0G0G0G0G0G0G0G0G0G0G0G0G0G0G................................................................................................................................",
"................................................................................................................................................................................................0G0G0G0G0G0G0G0G0G0G0G0G0G0G0G0G0G0G0G0G0G0G0G0G0G0G0G0G0G0G0G0G................................................................0G0G0G0G0G0G0G0G0G0G0G0G0G0G0G0G0G0G0G0G0G0G0G0G0G0G0G0G0G0G0G0G................................................................................................................................",
"................................................................................................................................................................................................0G0G0G0G0G0G0G0G0G0G0G0G0G0G0G0G0G0G0G0G0G0G0G0G0G0G0G0G0G0G0G0G................................................................0G0G0G0G0G0G0G0G0G0G0G0G0G0G0G0G0G0G0G0G0G0G0G0G0G0G0G0G0G0G0G0G................................................................................................................................",
"................................................................................................................................................................................................0G0G0G0G0G0G0G0G0G0G0G0G0G0G0G0G0G0G0G0G0G0G0G0G0G0G0G0G0G0G0G0G................................................................0G0G0G0G0G0G0G0G0G0G0G0G0G0G0G0G0G0G0G0G0G0G0G0G0G0G0G0G0G0G0G0G................................................................................................................................",
"................................................................................................................................................................................................0G0G0G0G0G0G0G0G0G0G0G0G0G0G0G0G0G0G0G0G0G0G0G0G0G0G0G0G0G0G0G0G................................................................0G0G0G0G0G0G0G0G0G0G0G0G0G0G0G0G0G0G0G0G0G0G0G0G0G0G0G0G0G0G0G0G................................................................................................................................",
"................................................................................................................................................................................................0G0G0G0G0G0G0G0G0G0G0G0G0G0G0G0G0G0G0G0G0G0G0G0G0G0G0G0G0G0G0G0G................................................................0G0G0G0G0G0G0G0G0G0G0G0G0G0G0G0G0G0G0G0G0G0G0G0G0G0G0G0G0G0G0G0G................................................................................................................................",
"................................................................................................................................................................................................0G0G0G0G0G0G0G0G0G0G0G0G0G0G0G0G0G0G0G0G0G0G0G0G0G0G0G0G0G0G0G0G................................................................0G0G0G0G0G0G0G0G0G0G0G0G0G0G0G0G0G0G0G0G0G0G0G0G0G0G0G0G0G0G0G0G................................................................................................................................",
"................................................................................................................................................................................................0G0G0G0G0G0G0G0G0G0G0G0G0G0G0G0G0G0G0G0G0G0G0G0G0G0G0G0G0G0G0G0G................................................................0G0G0G0G0G0G0G0G0G0G0G0G0G0G0G0G0G0G0G0G0G0G0G0G0G0G0G0G0G0G0G0G................................................................................................................................",
"................................................................................................................................................................................................0G0G0G0G0G0G0G0G0G0G0G0G0G0G0G0G0G0G0G0G0G0G0G0G0G0G0G0G0G0G0G0G................................................................0G0G0G0G0G0G0G0G0G0G0G0G0G0G0G0G0G0G0G0G0G0G0G0G0G0G0G0G0G0G0G0G................................................................................................................................",
"................................................................................................................................................................................................0G0G0G0G0G0G0G0G0G0G0G0G0G0G0G0G0G0G0G0G0G0G0G0G0G0G0G0G0G0G0G0G................................................................0G0G0G0G0G0G0G0G0G0G0G0G0G0G0G0G0G0G0G0G0G0G0G0G0G0G0G0G0G0G0G0G................................................................................................................................",
"................................................................................................................................................................................................0G0G0G0G0G0G0G0G0G0G0G0G0G0G0G0G0G0G0G0G0G0G0G0G0G0G0G0G0G0G0G0G................................................................0G0G0G0G0G0G0G0G0G0G0G0G0G0G0G0G0G0G0G0G0G0G0G0G0G0G0G0G0G0G0G0G................................................................................................................................",
"................................................................................................................................................................................................0G0G0G0G0G0G0G0G0G0G0G0G0G0G0G0G0G0G0G0G0G0G0G0G0G0G0G0G0G0G0G0G................................................................0G0G0G0G0G0G0G0G0G0G0G0G0G0G0G0G0G0G0G0G0G0G0G0G0G0G0G0G0G0G0G0G................................................................................................................................",
"................................................................................................................................................................................................0G0G0G0G0G0G0G0G0G0G0G0G0G0G0G0G0G0G0G0G0G0G0G0G0G0G0G0G0G0G0G0G................................................................0G0G0G0G0G0G0G0G0G0G0G0G0G0G0G0G0G0G0G0G0G0G0G0G0G0G0G0G0G0G0G0G................................................................................................................................",
"................................................................................................................................................................................................................................................................................................................................................................................................................................................................................................................................",
"................................................................................................................................................................................................................................................................................................................................................................................................................................................................................................................................",
"................................................................................................................................................................................................................................................................................................................................................................................................................................................................................................................................",
"................................................................................................................................................................................................................................................................................................................................................................................................................................................................................................................................",
"................................................................................................................................................................................................................................................................................................................................................................................................................................................................................................................................",
"................................................................................................................................................................................................................................................................................................................................................................................................................................................................................................................................",
"................................................................................................................................................................................................................................................................................................................................................................................................................................................................................................................................",
"................................................................................................................................................................................................................................................................................................................................................................................................................................................................................................................................",
"................................................................................................................................................................................................................................................................................................................................................................................................................................................................................................................................",
"................................................................................................................................................................................................................................................................................................................................................................................................................................................................................................................................",
"................................................................................................................................................................................................................................................................................................................................................................................................................................................................................................................................",
"................................................................................................................................................................................................................................................................................................................................................................................................................................................................................................................................",
"................................................................................................................................................................................................................................................................................................................................................................................................................................................................................................................................",
"................................................................................................................................................................................................................................................................................................................................................................................................................................................................................................................................",
"................................................................................................................................................................................................................................................................................................................................................................................................................................................................................................................................",
"................................................................................................................................................................................................................................................................................................................................................................................................................................................................................................................................"
};
